packages/core/src/svgs/tokens/branded/CKP.svg

<svg width="24" height="24" viewBox="0 0 24 24" fill="none" xmlns="http://www.w3.org/2000/svg">
<path d="M12.0939 2L20.5293 6.89411L16.6822 11.9352L20.3351 17.2176L12.0939 22L3.47046 16.9999V6.99999L12.0939 2ZM12.8822 18.4706C14.4175 18.4706 15.8293 17.9353 16.9411 17.0411L15.8528 15.2764C15.07 15.8287 14.1343 16.1227 13.1763 16.1177C10.741 16.1177 8.76457 14.2764 8.76457 12C8.76457 9.72352 10.741 7.88234 13.1763 7.88234C14.1175 7.88234 14.9881 8.15881 15.7058 8.62352L16.7646 6.82352C15.9443 6.20835 14.9897 5.79691 13.9792 5.62307C12.9688 5.44925 11.9315 5.51802 10.9529 5.82373C9.97429 6.12943 9.08227 6.66331 8.35044 7.38139C7.61861 8.09945 7.06791 8.98115 6.74368 9.95383C6.41946 10.9264 6.33101 11.9623 6.48563 12.9758C6.64026 13.9894 7.03351 14.9517 7.633 15.7835C8.2325 16.6151 9.02106 17.2926 9.93366 17.7598C10.8463 18.2269 11.8569 18.4706 12.8822 18.4706Z" fill="#1FA4FF"/>
</svg>

<svg xmlns="http://www.w3.org/2000/svg" width="24" height="24" fill="none" viewBox="0 0 24 24">
    <path fill="#1FA4FF" d="m12.094 2 8.435 4.894-3.847 5.041 3.653 5.283L12.094 22 3.47 17V7zm.788 16.47a6.46 6.46 0 0 0 4.06-1.429l-1.09-1.765a4.6 4.6 0 0 1-2.676.842c-2.435 0-4.411-1.842-4.411-4.118s1.976-4.118 4.411-4.118c.941 0 1.812.277 2.53.742l1.059-1.8a6.471 6.471 0 1 0-3.883 11.647"/>
</svg>
